X: 38557
T: Stig, The
R: jig
M: 6/8
K: Dmajor
FAA Adc|~B3 {c}BAB|def {g}fed|efd cdB|
eff fed|efd cdB|FAA Adc|1 ~B3 BAG:|2 ~B3 z2e||
faa afe|fbf afe|def fed|efd cdB|
faa afe|bfa efd|FAA Adc|1 ~B3 B2e:|2 ~B3 BAG||

